MonoIcons/scalable/status/non-starred-symbolic.svg

<?xml version="1.0" encoding="UTF-8"?>
<svg height="16px" viewBox="0 0 16 16" width="16px" xmlns="http://www.w3.org/2000/svg">
    <path d="m 8 0 c -0.429688 0 -0.8125 0.273438 -0.949219 0.683594 l -1.449219 4.339844 l -4.589843 -0.015626 c -0.4375 0 -0.828125 0.28125 -0.9609378 0.695313 c -0.1328124 0.417969 0.0195313 0.871094 0.3789068 1.125 l 3.625 2.554687 l -1.5 4.285157 c -0.140626 0.40625 -0.011719 0.855469 0.328124 1.121093 c 0.335938 0.261719 0.804688 0.285157 1.164063 0.050782 l 4.003906 -2.59375 l 3.894531 2.585937 c 0.359376 0.238281 0.828126 0.222657 1.167969 -0.042969 c 0.339844 -0.261718 0.472657 -0.714843 0.332031 -1.117187 l -1.503906 -4.289063 l 3.644532 -2.578124 c 0.351562 -0.25 0.503906 -0.703126 0.371093 -1.113282 c -0.128906 -0.414062 -0.511719 -0.695312 -0.945312 -0.699218 l -4.660157 -0.015626 l -1.402343 -4.285156 c -0.132813 -0.410156 -0.515625 -0.68749975 -0.949219 -0.691406 z m -0.007812 4.1875 l 0.683593 2.097656 c 0.132813 0.40625 0.515625 0.6875 0.945313 0.6875 l 2.253906 0.007813 l -1.703125 1.203125 c -0.363281 0.257812 -0.511719 0.726562 -0.363281 1.148437 l 0.765625 2.191407 l -1.964844 -1.304688 c -0.332031 -0.222656 -0.761719 -0.222656 -1.097656 -0.007812 l -2.101563 1.363281 l 0.785156 -2.242188 c 0.144532 -0.421875 -0.003906 -0.890625 -0.367187 -1.148437 l -1.652344 -1.164063 l 2.144531 0.007813 c 0.429688 0 0.8125 -0.277344 0.949219 -0.683594 z m 0 0" fill="#2e3436"/>
</svg>

<svg width="16" height="16" viewBox="0 0 16 16" fill="none" xmlns="http://www.w3.org/2000/svg">
<g clip-path="url(#clip0_231_1025)">
<path d="M8.00007 0C7.57038 0 7.18757 0.273438 7.05085 0.683594L5.60163 5.02344L1.01179 5.00781C0.574286 5.00781 0.183661 5.28906 0.0508485 5.70313C-0.0819639 6.12109 0.0703797 6.57422 0.429755 6.82813L4.05476 9.38281L2.55476 13.668C2.41413 14.0742 2.54304 14.5234 2.88288 14.7891C3.21882 15.0508 3.68757 15.0742 4.04694 14.8398L8.05085 12.2461L11.9454 14.832C12.3048 15.0703 12.7735 15.0547 13.1133 14.7891C13.4532 14.5273 13.586 14.0742 13.4454 13.6719L11.9415 9.38281L15.586 6.80469C15.9376 6.55469 16.0899 6.10156 15.9571 5.69141C15.8282 5.27734 15.4454 4.99609 15.0118 4.99219L10.3516 4.97656L8.94929 0.691406C8.81647 0.28125 8.43366 0.00390625 8.00007 0V0ZM7.99226 4.1875L8.67585 6.28516C8.80866 6.69141 9.19147 6.97266 9.62116 6.97266L11.8751 6.98047L10.1719 8.18359C9.80866 8.44141 9.66022 8.91016 9.80866 9.33203L10.5743 11.5234L8.60944 10.2188C8.27741 9.9961 7.84772 9.9961 7.51179 10.2109L5.41022 11.5742L6.19538 9.33203C6.33991 8.91016 6.19147 8.44141 5.82819 8.18359L4.17585 7.01953L6.32038 7.02735C6.75007 7.02735 7.13288 6.75 7.2696 6.34375L7.99226 4.1875Z" fill="#2E3436"/>
</g>
<defs>
<clipPath id="clip0_231_1025">
<rect width="16" height="16" fill="white"/>
</clipPath>
</defs>
</svg>
